X: 4
T: THE BASHFUL SWAIN
B: "Old English Country Dances", Frank Kidson ed., William Reeves pub., London 1890
Z: 2010-9-26 John Chambers <jc:trillian.mit.edu>
M: C|
L: 1/8
K: Dm
DE |\
F2A2 A2=B^c | d2A2 A2f2 | e2d2 e2d^c | d6 :|
|: fg |\
a2f2 f2a2 | g2c2 c2e2 | f2d2 d2(d/e/f) | e2A2 A2FG |
AGAB AGFG | AGAB A2f2 | e2d2 e2(d^c) | d6 |]


%%sep 1 1 500

%%sep 1 1 500

